src/lib/packages/icons/src/assets/line/contrast.svg

<svg xmlns="http://www.w3.org/2000/svg" width="24" height="24" fill="none"><path fill="currentColor" d="M12 1.25C6.072 1.25 1.25 6.073 1.25 12S6.072 22.75 12 22.75 22.75 17.927 22.75 12 17.928 1.25 12 1.25Zm0 20c-5.101 0-9.25-4.149-9.25-9.25S6.899 2.75 12 2.75s9.25 4.149 9.25 9.25-4.149 9.25-9.25 9.25Zm-.649-16.638C7.557 4.942 4.584 8.187 4.584 12c0 3.813 2.973 7.059 6.767 7.388a1.28 1.28 0 0 0 .971-.333c.272-.25.429-.604.429-.973V5.917c0-.369-.156-.723-.429-.973a1.28 1.28 0 0 0-.971-.332ZM11.25 17.87c-2.916-.371-5.167-2.905-5.167-5.87 0-2.964 2.251-5.499 5.167-5.87v11.74Z"/></svg>

<svg width="24" height="24" viewBox="0 0 24 24" fill="none" xmlns="http://www.w3.org/2000/svg">
<path d="M12 1.25C6.072 1.25 1.25 6.073 1.25 12C1.25 17.927 6.072 22.75 12 22.75C17.928 22.75 22.75 17.927 22.75 12C22.75 6.073 17.928 1.25 12 1.25ZM12 21.25C6.899 21.25 2.75 17.101 2.75 12C2.75 6.899 6.899 2.75 12 2.75C17.101 2.75 21.25 6.899 21.25 12C21.25 17.101 17.101 21.25 12 21.25ZM11.351 4.612C7.55701 4.942 4.58401 8.187 4.58401 12C4.58401 15.813 7.55701 19.059 11.351 19.388C11.387 19.391 11.423 19.393 11.459 19.393C11.775 19.393 12.084 19.273 12.322 19.055C12.594 18.805 12.751 18.451 12.751 18.082V5.91699C12.751 5.54799 12.595 5.194 12.322 4.944C12.057 4.702 11.699 4.58 11.351 4.612ZM11.25 17.87C8.334 17.499 6.08301 14.965 6.08301 12C6.08301 9.036 8.334 6.501 11.25 6.13V17.87Z" fill="currentColor"/>
</svg>
